svg/justvector/pandora.svg

<svg xmlns="http://www.w3.org/2000/svg" viewBox="0 0 100 100" enable-background="new 0 0 100 100"><path d="m76.67 12.513c-5.558-4.801-13.302-7.201-23.09-7.201h-38.579v3.151c12.274 0 13.882 2.1 13.882 17.399v48.75c0 15.3-1.607 17.548-13.882 17.548v3.151h39.458v-3.151c-12.277 0-13.885-2.248-13.885-17.548v-18.752h13.01c9.791 0 17.535-2.397 23.09-7.05 5.552-4.798 8.328-10.799 8.328-18.15 0-7.347-2.776-13.348-8.328-18.15m-23.24 37.948h-12.862v-39.598h12.861c12.13 0 18.56 8.247 18.56 19.797 0 11.551-6.431 19.801-18.559 19.801"/></svg>

<?xml version="1.0" encoding="iso-8859-1"?>
<!-- Generator: Adobe Illustrator 15.0.0, SVG Export Plug-In . SVG Version: 6.00 Build 0)  -->
<!DOCTYPE svg PUBLIC "-//W3C//DTD SVG 1.1//EN" "http://www.w3.org/Graphics/SVG/1.1/DTD/svg11.dtd">
<svg version="1.1" id="Layer_1" xmlns="http://www.w3.org/2000/svg" xmlns:xlink="http://www.w3.org/1999/xlink" x="0px" y="0px"
	 width="100px" height="100px" viewBox="0 0 100 100" style="enable-background:new 0 0 100 100;" xml:space="preserve">
<path id="Pandora" d="M76.672,12.513C71.114,7.712,63.37,5.312,53.579,5.312H15v3.151c12.274,0,13.882,2.1,13.882,17.399v48.75
	c0,15.3-1.607,17.548-13.882,17.548v3.151h39.458V92.16c-12.277,0-13.885-2.248-13.885-17.548V55.86h13.006
	c9.791,0,17.535-2.397,23.093-7.05C82.224,44.012,85,38.011,85,30.66C85,23.313,82.224,17.312,76.672,12.513z M53.435,50.461H40.573
	V10.863h12.861c12.129,0,18.56,8.247,18.56,19.797C71.994,42.211,65.563,50.461,53.435,50.461z"/>
</svg>
